X: 121
T: Damul
B: incoming
M:4/4
L:1/8
Q: 1/4=144
K:Gdor
V:1 
  F/G/A BF GF A2     |BAGF A/G/F/B/ c2  |\
  F/G/A BF GF A2     |BAGF G2 z2        :|
V:2 
  F,2 C,2 F,2 C,2    | F,2 C,2 F,2 C,2  |\
  F,2 C,2 F,2 C,2    |G,,2 =B,,2 C,2 z2 :|
W: transcribed by Jutta Weber-Karn
W: http://www.folkloretanznoten.de/
W: converted to abc notation by Seymour Shlien
% abcbook-tune_id 63cb082f5f69e77fc18c8534
% abcbook-tune_composer_id 
% abcbook-boost 0
% abcbook-difficulty 0
% abcbook-tags balkan dances
% abcbook-tablature 
% abcbook-transpose 
% abcbook-tuning 
% abcbook-lastupdated 1674250287865
% abcbook-soundfonts 
% abcbook-repeats 1


